svgs/thin/bell-plus.svg

<svg xmlns="http://www.w3.org/2000/svg" viewBox="0 0 448 512"><!--! Font Awesome Pro 6.4.0 by @fontawesome - https://fontawesome.com License - https://fontawesome.com/license (Commercial License) Copyright 2023 Fonticons, Inc. --><path d="M216 8c0-4.4 3.6-8 8-8s8 3.6 8 8V32l0 .2c84.6 4.2 152 74.1 152 159.8v36.6c0 41.8 14.2 82.3 40.3 114.9l16.7 20.9c4.5 5.6 6.9 12.6 6.9 19.8c0 17.5-14.2 31.7-31.7 31.7H31.7C14.2 416 0 401.8 0 384.3c0-7.2 2.4-14.2 6.9-19.8l16.7-20.9C49.8 311 64 270.4 64 228.6V192c0-85.7 67.4-155.6 152-159.8l0-.2V8zm8 40C144.5 48 80 112.5 80 192v36.6c0 45.4-15.5 89.5-43.8 124.9L19.4 374.5c-2.2 2.8-3.4 6.2-3.4 9.8C16 393 23 400 31.7 400H416.3c8.7 0 15.7-7 15.7-15.7c0-3.6-1.2-7-3.4-9.8l-16.7-20.9C383.5 318.1 368 274.1 368 228.6V192c0-79.5-64.5-144-144-144zM176 448c0 12.7 5.1 24.9 14.1 33.9s21.2 14.1 33.9 14.1s24.9-5.1 33.9-14.1s14.1-21.2 14.1-33.9c0-4.4 3.6-8 8-8s8 3.6 8 8c0 17-6.7 33.3-18.7 45.3s-28.3 18.7-45.3 18.7s-33.3-6.7-45.3-18.7s-18.7-28.3-18.7-45.3c0-4.4 3.6-8 8-8s8 3.6 8 8zm48-288c4.4 0 8 3.6 8 8v64h64c4.4 0 8 3.6 8 8s-3.6 8-8 8H232v64c0 4.4-3.6 8-8 8s-8-3.6-8-8V248H152c-4.4 0-8-3.6-8-8s3.6-8 8-8h64V168c0-4.4 3.6-8 8-8z"/></svg>

<svg xmlns="http://www.w3.org/2000/svg" viewBox="0 0 448 512"><!--! Font Awesome Pro 6.3.0 by @fontawesome - https://fontawesome.com License - https://fontawesome.com/license (Commercial License) Copyright 2023 Fonticons, Inc. --><path d="M224 160C228.4 160 232 163.6 232 168V232H296C300.4 232 304 235.6 304 240C304 244.4 300.4 248 296 248H232V312C232 316.4 228.4 320 224 320C219.6 320 216 316.4 216 312V248H152C147.6 248 144 244.4 144 240C144 235.6 147.6 232 152 232H216V168C216 163.6 219.6 160 224 160zM216 8C216 3.582 219.6 0 224 0C228.4 0 232 3.582 232 8V32L231.1 32.2C316.6 36.36 384 106.3 384 192V228.6C384 270.4 398.2 310.1 424.3 343.6L441.1 364.5C445.6 370.1 448 377.1 448 384.3C448 401.8 433.8 416 416.3 416H31.69C14.19 416 0 401.8 0 384.3C0 377.1 2.449 370.1 6.944 364.5L23.68 343.6C49.78 310.1 64 270.4 64 228.6V192C64 106.3 131.4 36.36 216 32.2L216 32V8zM224 48C144.5 48 80 112.5 80 192V228.6C80 274.1 64.54 318.1 36.17 353.6L19.44 374.5C17.21 377.3 16 380.7 16 384.3C16 392.1 23.02 400 31.69 400H416.3C424.1 400 432 392.1 432 384.3C432 380.7 430.8 377.3 428.6 374.5L411.8 353.6C383.5 318.1 368 274.1 368 228.6V192C368 112.5 303.5 48 224 48zM190.1 481.9C199.1 490.9 211.3 496 224 496C236.7 496 248.9 490.9 257.9 481.9C266.9 472.9 272 460.7 272 448C272 443.6 275.6 440 280 440C284.4 440 288 443.6 288 448C288 464.1 281.3 481.3 269.3 493.3C257.3 505.3 240.1 512 224 512C207 512 190.7 505.3 178.7 493.3C166.7 481.3 160 464.1 160 448C160 443.6 163.6 440 168 440C172.4 440 176 443.6 176 448C176 460.7 181.1 472.9 190.1 481.9z"/></svg>
